icons/receipt-naira.svg

<svg
  xmlns="http://www.w3.org/2000/svg"
  width="24"
  height="24"
  viewBox="0 0 24 24"
  fill="none"
  stroke="currentColor"
  stroke-width="2"
  stroke-linecap="round"
  stroke-linejoin="round"
>
  <path d="M4 2v20l2-1 2 1 2-1 2 1 2-1 2 1 2-1 2 1V2l-2 1-2-1-2 1-2-1-2 1-2-1-2 1-2-1z" />
  <path d="M8 7v10" />
  <path d="M16 7v10" />
  <path d="M6 10h12" />
  <path d="M6 14h12" />
  <path d="M8 7l8 10" />
</svg>

<svg
  xmlns="http://www.w3.org/2000/svg"
  width="24"
  height="24"
  viewBox="0 0 24 24"
  fill="none"
  stroke="currentColor"
  stroke-width="2"
  stroke-linecap="round"
  stroke-linejoin="round"
>
  <path d="M4 2V22L6 21L8 22L10 21L12 22L14 21L16 22L18 21L20 22V2L18 3L16 2L14 3L12 2L10 3L8 2L6 3L4 2Z" />
  <path d="M8 7V17" />
  <path d="M16 7V17" />
  <path d="M6 11L18 11" />
  <path d="M6 13L18 13" />
  <path d="M8 7L16 17" />
</svg>
